; generated by PrusaSlicer 2.8.0+win64 on 2024-08-12 at 22:12:24 UTC


;
;
; 

; external perimeters extrusion width = 0.45mm
; perimeters extrusion width = 0.45mm
; infill extrusion width = 0.45mm
; solid infill extrusion width = 0.45mm
; top infill extrusion width = 0.40mm
; first layer extrusion width = 0.42mm

M73 P0 R3
M73 Q0 S3
M201 X1000 Y1000 Z200 E5000 ; sets maximum accelerations, mm/sec^2
M203 X200 Y200 Z12 E120 ; sets maximum feedrates, mm / sec
M204 S1250 T1250 ; sets acceleration (S) and retract acceleration (R), mm/sec^2
M205 X8.00 Y8.00 Z0.40 E4.50 ; sets the jerk limits, mm/sec
M205 S0 T0 ; sets the minimum extruding and travel feed rate, mm/sec

; printing object Screewdriver_Wallmount_Fittest_v1.stl id:0 copy 0
; stop printing object Screewdriver_Wallmount_Fittest_v1.stl id:0 copy 0

;TYPE:Custom
M862.3 P "MK3S" ; printer model check
M862.1 P0.4 ; nozzle diameter check
M115 U3.13.3 ; tell printer latest fw version
G90 ; use absolute coordinates
M83 ; extruder relative mode
M104 S230 ; set extruder temp
M140 S85 ; set bed temp
M190 S85 ; wait for bed temp
M109 S230 ; wait for extruder temp
G28 W ; home all without mesh bed level
G80 X103.873 Y80.1229 W42.2542 H49.7542 ; mesh bed levelling

G1 Z0.2 F720
G1 Y-3 F1000 ; go outside print area
G92 E0
G1 X60 E9 F1000 ; intro line
G1 X100 E12.5 F1000 ; intro line
M73 P1 R3
M73 Q1 S3

G92 E0
M221 S95

; Don't change E values below. Excessive value can damage the printer.
M907 E430 ; set extruder motor current
G21 ; set units to millimeters
G90 ; use absolute coordinates
M83 ; use relative distances for extrusion

M900 K0.08 ; Filament gcode LA 1.5
M900 K45 ; Filament gcode LA 1.0




M107
;LAYER_CHANGE
;Z:0.2
;HEIGHT:0.2
G1 E-1 F2100
M73 P2 R3
M73 Q2 S3
G1 Z.4 F720
G1 X104.452 Y81.252 F10800
G1 Z.2 F720
M73 P3 R3
M73 Q3 S3
G1 E1 F2100
M204 S800
;TYPE:Skirt/Brim
;WIDTH:0.42
G1 F1200
G1 X105.485 Y80.449 E.04102
G1 X106.25 Y80.311 E.02437
G1 X143.75 Y80.311 E1.17579
G1 X144.998 Y80.702 E.04101
M73 P4 R3
M73 Q4 S3
G1 X145.801 Y81.735 E.04102
G1 X145.939 Y82.5 E.02437
G1 X145.939 Y119.152 E1.1492
G1 X145.629 Y120.274 E.0365
M73 P5 R3
M73 Q5 S3
G1 X140.645 Y128.622 E.30485
G1 X139.669 Y129.493 E.04102
G1 X138.766 Y129.689 E.02897
G1 X106.25 Y129.689 E1.01952
G1 X105.002 Y129.298 E.04101
M73 P6 R3
M73 Q6 S3
G1 X104.199 Y128.265 E.04102
G1 X104.061 Y127.5 E.02437
G1 X104.061 Y82.5 E1.41094
G1 X104.434 Y81.309 E.03913
M73 P7 R3
M73 Q7 S3
M204 S1000
;WIPE_START
G1 F8640
G1 X104.452 Y81.252 E-.0138
G1 X105.485 Y80.449 E-.30211
G1 X106.25 Y80.311 E-.17949
G1 X108.435 Y80.311 E-.5046
;WIPE_END
G1 Z.4 F720
; printing object Screewdriver_Wallmount_Fittest_v1.stl id:0 copy 0
G1 X128.091 Y114.332 F10800
G1 Z.2 F720
G1 E1 F2100
M204 S800
;TYPE:Perimeter
;WIDTH:0.419999
G1 F1200
G1 X127.991 Y114.849 E.01651
G1 X127.752 Y115.421 E.01944
G1 X127.405 Y115.935 E.01944
G1 X126.965 Y116.372 E.01944
G1 X126.438 Y116.721 E.01982
G1 X123.558 Y118.384 E.10427
G1 X123.014 Y118.602 E.01838
G1 X122.406 Y118.721 E.01943
G1 X121.786 Y118.718 E.01944
G1 X121.179 Y118.595 E.01942
G1 X120.534 Y118.318 E.02201
G1 X117.655 Y116.656 E.10423
G1 X117.232 Y116.358 E.01622
G1 X116.795 Y115.918 E.01944
G1 X116.499 Y115.477 E.01665
G1 X116.217 Y114.828 E.02219
G1 X116.099 Y114.223 E.01933
G1 X116.1 Y110.324 E.12225
G1 X116.224 Y109.689 E.02029
M73 Q8 S3
G1 X116.463 Y109.117 E.01944
M73 P8 R3
G1 X116.809 Y108.603 E.01943
G1 X117.249 Y108.166 E.01944
G1 X117.75 Y107.833 E.01886
G1 X120.656 Y106.155 E.10521
G1 X121.2 Y105.937 E.01838
G1 X121.808 Y105.818 E.01943
G1 X122.428 Y105.82 E.01944
G1 X123.036 Y105.943 E.01945
G1 X123.211 Y106.002 E.00579
G1 X123.68 Y106.22 E.01622
G1 X126.56 Y107.883 E.10427
G1 X126.983 Y108.18 E.01621
G1 X127.419 Y108.62 E.01942
G1 X127.715 Y109.062 E.01668
G1 X127.997 Y109.71 E.02216
G1 X128.115 Y110.315 E.01933
G1 X128.128 Y110.472 E.00494
G1 X128.114 Y114.214 E.11733
G1 X128.103 Y114.273 E.00188
M204 S1000
G1 X128.103 Y114.273 F10800
G1 X127.723 Y114.284
M204 S800
G1 F1200
G1 X127.624 Y114.764 E.01537
G1 X127.408 Y115.266 E.01714
G1 X127.099 Y115.716 E.01712
G1 X126.708 Y116.097 E.01712
G1 X126.249 Y116.395 E.01716
G1 X123.37 Y118.057 E.10423
G1 X122.882 Y118.249 E.01644
G1 X122.345 Y118.349 E.01713
G1 X121.799 Y118.342 E.01712
G1 X121.264 Y118.228 E.01715
G1 X120.723 Y117.992 E.01851
G1 X117.843 Y116.329 E.10427
G1 X117.368 Y115.979 E.0185
G1 X117.003 Y115.573 E.01712
G1 X116.723 Y115.103 E.01715
G1 X116.541 Y114.588 E.01713
G1 X116.463 Y114.068 E.01649
G1 X116.477 Y110.326 E.11733
G1 X116.591 Y109.775 E.01764
G1 X116.806 Y109.273 E.01712
G1 X117.115 Y108.823 E.01712
G1 X117.507 Y108.441 E.01716
G1 X117.949 Y108.153 E.01654
M73 Q9 S3
G1 X120.845 Y106.481 E.10485
G1 X121.333 Y106.29 E.01643
M73 P9 R3
G1 X121.87 Y106.19 E.01713
G1 X122.416 Y106.197 E.01712
G1 X123.055 Y106.346 E.02057
G1 X123.491 Y106.547 E.01505
G1 X126.371 Y108.209 E.10426
G1 X126.846 Y108.56 E.01852
G1 X127.212 Y108.966 E.01714
G1 X127.491 Y109.435 E.01711
G1 X127.673 Y109.95 E.01713
G1 X127.751 Y110.471 E.01652
G1 X127.737 Y114.213 E.11733
G1 X127.735 Y114.225 E.00038
M204 S1000
G1 X127.735 Y114.225 F10800
G1 X127.355 Y114.235
M204 S800
;TYPE:External perimeter
G1 F1200
G1 X127.244 Y114.713 E.01539
G1 X127.046 Y115.142 E.01481
G1 X126.768 Y115.524 E.01481
G1 X126.421 Y115.844 E.0148
G1 X123.181 Y117.731 E.11756
G1 X122.713 Y117.906 E.01567
G1 X122.158 Y117.976 E.01754
G1 X121.774 Y117.96 E.01205
G1 X121.315 Y117.849 E.01481
G1 X120.912 Y117.665 E.01389
G1 X118.032 Y116.003 E.10426
G1 X117.643 Y115.721 E.01506
G1 X117.323 Y115.374 E.0148
G1 X117.076 Y114.97 E.01485
G1 X116.913 Y114.527 E.0148
G1 X116.84 Y114.069 E.01454
G1 X116.854 Y110.327 E.11733
G1 X116.97 Y109.825 E.01615
G1 X117.168 Y109.396 E.01481
G1 X117.446 Y109.014 E.01481
G1 X117.794 Y108.694 E.01482
G1 X118.153 Y108.47 E.01327
G1 X121.033 Y106.808 E.10426
G1 X121.501 Y106.633 E.01567
G1 X122.056 Y106.562 E.01754
G1 X122.44 Y106.579 E.01205
G1 X122.899 Y106.689 E.0148
G1 X123.303 Y106.873 E.01392
G1 X126.183 Y108.536 E.10427
G1 X126.571 Y108.818 E.01504
M73 Q10 S3
G1 X126.891 Y109.165 E.0148
G1 X127.138 Y109.568 E.01482
M73 P10 R3
G1 X127.301 Y110.011 E.0148
G1 X127.374 Y110.469 E.01454
G1 X127.36 Y114.176 E.11623
M204 S1000
;WIPE_START
G1 F8640
G1 X127.355 Y114.235 E-.01367
G1 X127.244 Y114.713 E-.11331
G1 X127.046 Y115.142 E-.1091
G1 X126.768 Y115.524 E-.10909
G1 X126.421 Y115.844 E-.10899
G1 X124.378 Y117.033 E-.54584
;WIPE_END
G1 Z.4 F720
G1 X110.156 Y104.46 F10800
G1 Z.2 F720
G1 E1 F2100
M204 S800
;TYPE:Perimeter
G1 F1200
G1 X110.146 Y104.444 E.00059
G1 X110.086 Y104.112 E.01058
G1 X110.086 Y98.182 E.18593
G1 X110.133 Y97.887 E.00937
G1 X110.383 Y97.465 E.01538
G1 X110.82 Y97.032 E.01929
G1 X111.321 Y96.699 E.01886
G1 X114.228 Y95.02 E.10526
G1 X114.771 Y94.802 E.01835
G1 X115.38 Y94.683 E.01946
G1 X115.999 Y94.685 E.01941
G1 X116.607 Y94.808 E.01945
G1 X117.251 Y95.085 E.02198
G1 X120.131 Y96.748 E.10427
G1 X120.554 Y97.046 E.01622
G1 X120.991 Y97.485 E.01942
G1 X121.287 Y97.927 E.01668
G1 X121.569 Y98.576 E.02219
G1 X121.687 Y99.18 E.0193
G1 X121.699 Y99.337 E.00494
G1 X121.686 Y103.08 E.11736
G1 X121.562 Y103.715 E.02029
G1 X121.323 Y104.287 E.01944
M73 Q11 S3
G1 X120.977 Y104.801 E.01943
G1 X120.537 Y105.238 E.01944
G1 X120.036 Y105.571 E.01886
G1 X117.129 Y107.249 E.10524
M73 P11 R3
G1 X116.586 Y107.467 E.01835
G1 X115.978 Y107.586 E.01943
G1 X115.358 Y107.584 E.01944
G1 X114.75 Y107.461 E.01945
G1 X114.106 Y107.184 E.02198
G1 X111.226 Y105.521 E.10427
G1 X110.803 Y105.224 E.01621
G1 X110.341 Y104.756 E.02062
G1 X110.188 Y104.511 E.00906
M204 S1000
G1 X110.523 Y104.312 F10800
M204 S800
G1 F1200
G1 X110.471 Y104.21 E.00359
G1 X110.463 Y98.182 E.189
G1 X110.491 Y98.005 E.00562
G1 X110.719 Y97.648 E.01328
G1 X111.166 Y97.239 E.019
G1 X114.416 Y95.347 E.11791
G1 X114.904 Y95.155 E.01644
G1 X115.441 Y95.055 E.01713
G1 X115.987 Y95.062 E.01712
G1 X116.521 Y95.176 E.01712
G1 X117.063 Y95.412 E.01854
G1 X119.942 Y97.075 E.10425
G1 X120.418 Y97.425 E.01852
G1 X120.783 Y97.831 E.01712
G1 X121.062 Y98.301 E.01714
G1 X121.244 Y98.815 E.0171
G1 X121.322 Y99.336 E.01652
G1 X121.309 Y103.078 E.11733
G1 X121.195 Y103.629 E.01764
G1 X120.979 Y104.131 E.01714
G1 X120.67 Y104.581 E.01712
G1 X120.279 Y104.962 E.01712
G1 X119.837 Y105.25 E.01654
G1 X116.941 Y106.923 E.10486
G1 X116.453 Y107.114 E.01643
M73 Q12 S3
G1 X115.916 Y107.214 E.01713
G1 X115.37 Y107.207 E.01712
G1 X114.836 Y107.094 E.01711
G1 X114.294 Y106.857 E.01855
M73 P12 R3
G1 X111.415 Y105.195 E.10423
G1 X110.976 Y104.88 E.01694
G1 X110.616 Y104.498 E.01646
G1 X110.549 Y104.366 E.00464
M204 S1000
G1 X110.549 Y104.366 F10800
G1 X110.86 Y104.187
M204 S800
;TYPE:External perimeter
G1 F1200
G1 X110.852 Y104.178 E.00038
G1 X110.84 Y98.182 E.188
G1 X110.875 Y98.072 E.00362
G1 X111.018 Y97.88 E.00751
G1 X111.365 Y97.559 E.01482
G1 X114.605 Y95.673 E.11755
G1 X115.073 Y95.498 E.01567
G1 X115.627 Y95.428 E.01751
G1 X116.012 Y95.444 E.01208
G1 X116.471 Y95.555 E.01481
G1 X116.874 Y95.738 E.01388
G1 X119.754 Y97.401 E.10427
G1 X120.143 Y97.683 E.01506
G1 X120.463 Y98.03 E.0148
G1 X120.709 Y98.433 E.0148
G1 X120.872 Y98.877 E.01483
G1 X120.945 Y99.335 E.01454
G1 X120.932 Y103.077 E.11733
G1 X120.816 Y103.579 E.01615
G1 X120.618 Y104.007 E.01479
G1 X120.339 Y104.389 E.01483
G1 X119.992 Y104.71 E.01482
G1 X119.632 Y104.933 E.01328
G1 X116.752 Y106.596 E.10427
G1 X116.285 Y106.771 E.01564
G1 X115.73 Y106.841 E.01754
G1 X115.346 Y106.825 E.01205
G1 X114.921 Y106.726 E.01368
G1 X114.483 Y106.531 E.01503
G1 X111.603 Y104.868 E.10427
G1 X111.215 Y104.586 E.01504
G1 X110.9 Y104.232 E.01486
M204 S1000
;WIPE_START
G1 F8640
G1 X110.86 Y104.187 E-.0139
G1 X110.852 Y104.178 E-.00278
G1 X110.843 Y99.92 E-.98332
;WIPE_END
G1 Z.4 F720
M73 Q13 S3
G1 X110.54 Y117.895 F10800
M73 P13 R3
G1 Z.2 F720
G1 E1 F2100
M204 S800
;TYPE:Perimeter
G1 F1200
G1 X110.308 Y117.714 E.00923
G1 X110.147 Y117.44 E.00996
G1 X110.086 Y117.106 E.01065
G1 X110.086 Y107.427 E.30348
G1 X110.146 Y107.095 E.01058
G1 X110.341 Y106.783 E.01154
G1 X110.657 Y106.561 E.01211
G1 X110.989 Y106.486 E.01067
G1 X111.5 Y106.611 E.01649
G1 X113.702 Y107.883 E.07973
G1 X114.125 Y108.18 E.01621
G1 X114.562 Y108.62 E.01944
G1 X114.858 Y109.062 E.01668
G1 X115.14 Y109.71 E.02216
G1 X115.258 Y110.315 E.01933
G1 X115.271 Y113.797 E.10918
G1 X115.233 Y114.425 E.01973
G1 X115.074 Y115.024 E.01943
G1 X114.852 Y115.504 E.01658
G1 X114.548 Y115.936 E.01656
G1 X114.108 Y116.372 E.01942
G1 X113.807 Y116.575 E.01138
G1 X111.503 Y117.921 E.08366
G1 X111.355 Y117.991 E.00513
G1 X110.817 Y118.025 E.0169
G1 X110.617 Y117.954 E.00665
G1 X110.587 Y117.932 E.00117
M204 S1000
G1 X110.587 Y117.932 F10800
G1 X110.74 Y117.571
M204 S800
G1 F1200
G1 X110.596 Y117.471 E.0055
G1 X110.471 Y117.204 E.00924
G1 X110.463 Y117.106 E.00308
G1 X110.463 Y107.427 E.30348
G1 X110.499 Y107.228 E.00634
M73 P14 R3
M73 Q14 S3
G1 X110.616 Y107.041 E.00692
G1 X110.806 Y106.907 E.00729
G1 X111.005 Y106.862 E.0064
G1 X111.311 Y106.938 E.00989
G1 X113.514 Y108.209 E.07974
G1 X113.906 Y108.487 E.01507
G1 X114.287 Y108.878 E.01712
G1 X114.585 Y109.336 E.01713
G1 X114.787 Y109.843 E.01711
G1 X114.886 Y110.376 E.017
G1 X114.894 Y113.796 E.10723
G1 X114.865 Y114.34 E.01708
G1 X114.731 Y114.869 E.01711
G1 X114.512 Y115.338 E.01623
G1 X114.183 Y115.786 E.01743
G1 X113.775 Y116.156 E.01727
G1 X111.313 Y117.595 E.08941
G1 X111.224 Y117.637 E.00309
G1 X110.837 Y117.638 E.01213
G1 X110.789 Y117.605 E.00183
M204 S1000
G1 X110.789 Y117.605 F10800
G1 X111.053 Y117.272
M204 S800
;TYPE:External perimeter
G1 F1200
G1 X110.946 Y117.276 E.00336
G1 X110.852 Y117.173 E.00437
G1 X110.84 Y117.106 E.00213
G1 X110.84 Y107.427 E.30348
G1 X110.891 Y107.299 E.00432
G1 X111.021 Y107.239 E.00449
G1 X111.123 Y107.264 E.00329
G1 X113.325 Y108.536 E.07973
G1 X113.686 Y108.793 E.01389
G1 X114.034 Y109.165 E.01597
G1 X114.281 Y109.568 E.01482
G1 X114.444 Y110.012 E.01483
G1 X114.517 Y110.468 E.01448
G1 X114.517 Y113.794 E.10428
G1 X114.498 Y114.254 E.01444
G1 X114.387 Y114.713 E.01481
G1 X114.189 Y115.142 E.01481
G1 X113.911 Y115.524 E.01481
G1 X113.559 Y115.847 E.01498
G1 X111.123 Y117.269 E.08844
G1 X111.113 Y117.27 E.00032
M73 P15 R3
M73 Q15 S3
M204 S1000
;WIPE_START
G1 F8640
G1 X111.053 Y117.272 E-.01386
G1 X110.946 Y117.276 E-.02472
G1 X110.852 Y117.173 E-.0322
G1 X110.84 Y117.106 E-.01572
G1 X110.84 Y113.15 E-.9135
;WIPE_END
G1 Z.4 F720
G1 X128.948 Y94.704 F10800
G1 Z.2 F720
G1 E1 F2100
M204 S800
;TYPE:Perimeter
G1 F1200
G1 X129.464 Y94.808 E.0165
G1 X130.108 Y95.085 E.02198
G1 X132.988 Y96.748 E.10427
G1 X133.411 Y97.046 E.01622
G1 X133.848 Y97.485 E.01942
G1 X134.144 Y97.927 E.01668
G1 X134.426 Y98.576 E.02219
G1 X134.544 Y99.18 E.0193
G1 X134.557 Y99.337 E.00494
G1 X134.543 Y103.08 E.11736
G1 X134.419 Y103.715 E.02029
G1 X134.18 Y104.287 E.01944
G1 X133.834 Y104.801 E.01943
G1 X133.394 Y105.238 E.01944
G1 X132.866 Y105.587 E.01984
G1 X129.987 Y107.249 E.10423
G1 X129.443 Y107.467 E.01838
G1 X128.835 Y107.586 E.01943
G1 X128.215 Y107.584 E.01944
G1 X127.607 Y107.461 E.01945
G1 X126.963 Y107.184 E.02198
G1 X124.083 Y105.521 E.10427
G1 X123.66 Y105.224 E.01621
G1 X123.223 Y104.784 E.01944
G1 X122.927 Y104.342 E.01668
G1 X122.646 Y103.694 E.02215
G1 X122.527 Y103.089 E.01933
G1 X122.515 Y102.932 E.00494
G1 X122.528 Y99.19 E.11733
G1 X122.652 Y98.554 E.02032
M73 Q16 S3
G1 X122.912 Y97.939 E.02094
M73 P16 R3
G1 X123.238 Y97.468 E.01796
G1 X123.677 Y97.032 E.0194
G1 X124.205 Y96.683 E.01984
G1 X127.085 Y95.02 E.10427
G1 X127.628 Y94.802 E.01835
G1 X128.237 Y94.683 E.01946
G1 X128.857 Y94.685 E.01944
G1 X128.889 Y94.692 E.00103
M204 S1000
G1 X128.889 Y94.692 F10800
G1 X128.899 Y95.074
M204 S800
G1 F1200
G1 X129.379 Y95.176 E.01539
G1 X129.92 Y95.412 E.01851
G1 X132.8 Y97.075 E.10427
G1 X133.275 Y97.425 E.0185
G1 X133.64 Y97.831 E.01712
G1 X133.919 Y98.301 E.01714
G1 X134.102 Y98.815 E.01711
G1 X134.179 Y99.336 E.01651
G1 X134.166 Y103.078 E.11733
G1 X134.052 Y103.629 E.01764
G1 X133.837 Y104.131 E.01712
G1 X133.527 Y104.581 E.01713
G1 X133.136 Y104.962 E.01712
G1 X132.678 Y105.26 E.01713
G1 X129.798 Y106.923 E.10427
G1 X129.31 Y107.114 E.01643
G1 X128.773 Y107.214 E.01713
G1 X128.227 Y107.207 E.01712
G1 X127.693 Y107.094 E.01711
G1 X127.152 Y106.857 E.01852
G1 X124.272 Y105.195 E.10426
G1 X123.797 Y104.844 E.01852
G1 X123.431 Y104.438 E.01714
G1 X123.152 Y103.969 E.01711
G1 X122.97 Y103.454 E.01713
G1 X122.892 Y102.933 E.01652
G1 X122.906 Y99.191 E.11733
G1 X123.019 Y98.64 E.01764
G1 X123.247 Y98.112 E.01803
G1 X123.544 Y97.688 E.01623
G1 X123.935 Y97.307 E.01712
G1 X124.393 Y97.009 E.01713
G1 X127.273 Y95.347 E.10426
G1 X127.761 Y95.155 E.01644
M73 P17 R3
M73 Q17 S3
G1 X128.298 Y95.055 E.01713
G1 X128.84 Y95.062 E.017
M204 S1000
G1 X128.84 Y95.062 F10800
G1 X128.85 Y95.443
M204 S800
;TYPE:External perimeter
G1 F1200
G1 X128.869 Y95.444 E.0006
G1 X129.328 Y95.555 E.01481
G1 X129.731 Y95.738 E.01388
G1 X132.611 Y97.401 E.10427
G1 X133 Y97.683 E.01506
G1 X133.32 Y98.03 E.0148
G1 X133.566 Y98.433 E.0148
G1 X133.729 Y98.877 E.01483
G1 X133.802 Y99.335 E.01454
G1 X133.789 Y103.077 E.11733
G1 X133.673 Y103.579 E.01615
G1 X133.475 Y104.007 E.01479
G1 X133.197 Y104.389 E.01481
G1 X132.849 Y104.71 E.01484
G1 X132.489 Y104.933 E.01328
G1 X129.61 Y106.596 E.10425
G1 X129.142 Y106.771 E.01567
G1 X128.587 Y106.841 E.01754
G1 X128.203 Y106.825 E.01205
G1 X127.743 Y106.714 E.01484
G1 X127.34 Y106.531 E.01388
G1 X124.46 Y104.868 E.10427
G1 X124.072 Y104.586 E.01504
G1 X123.751 Y104.239 E.01482
G1 X123.505 Y103.836 E.0148
G1 X123.342 Y103.392 E.01483
G1 X123.269 Y102.935 E.01451
G1 X123.283 Y99.192 E.11736
G1 X123.398 Y98.691 E.01612
G1 X123.582 Y98.285 E.01398
G1 X123.875 Y97.88 E.01567
G1 X124.222 Y97.559 E.01482
G1 X124.582 Y97.336 E.01328
G1 X127.462 Y95.673 E.10427
G1 X127.93 Y95.498 E.01567
G1 X128.485 Y95.428 E.01754
G1 X128.79 Y95.441 E.00957
M204 S1000
;WIPE_START
G1 F8640
G1 X128.85 Y95.443 E-.01386
G1 X128.869 Y95.444 E-.00439
G1 X129.328 Y95.555 E-.10904
G1 X129.731 Y95.738 E-.1022
G1 X132.611 Y97.401 E-.7679
